src/actions/24/folder-sync.svg

<svg viewBox="0 0 24 24" xmlns="http://www.w3.org/2000/svg">
 <defs>
  <style type="text/css">.ColorScheme-Text {
        color:#2e3440;
      }</style>
 </defs>
 <path class="ColorScheme-Text" d="m4 4v1 15h1 9v-1h-9v-8h3v-0.009766l0.0078125 0.009766 2-2h8.9922v5h1v-8h-6.9922l-2-2-0.007812 0.0097656v-0.0097656h-6-1zm13.5 11c-1.385 0-2.5 1.115-2.5 2.5 0 0.43343 0.11805 0.83481 0.31055 1.1895l0.75976-0.75976c-0.041029-0.1371-0.070312-0.2789-0.070312-0.42969 0-0.831 0.669-1.5 1.5-1.5 0.15079 0 0.29259 0.029293 0.42969 0.070312l0.75976-0.75976c-0.35466-0.19249-0.75603-0.31055-1.1895-0.31055zm2.1895 1.3105-0.75976 0.75976c0.041029 0.1371 0.070312 0.2789 0.070312 0.42969 0 0.831-0.669 1.5-1.5 1.5-0.15079 0-0.29259-0.029293-0.42969-0.070312l-0.75976 0.75976c0.35465 0.19249 0.75603 0.31055 1.1895 0.31055 1.385 0 2.5-1.115 2.5-2.5 0-0.43343-0.11805-0.83481-0.31055-1.1895z" fill="currentColor"/>
</svg>

<svg xmlns="http://www.w3.org/2000/svg" viewBox="0 0 24 24">
  <defs id="defs3051">
    <style type="text/css" id="current-color-scheme">
      .ColorScheme-Text {
        color:#2e3440;
      }
      </style>
  </defs>
 <path style="fill:currentColor;fill-opacity:1;stroke:none" 
     d="M 4 4 L 4 5 L 4 20 L 5 20 L 14 20 L 14 19 L 5 19 L 5 11 L 8 11 L 8 10.990234 L 8.0078125 11 L 10.007812 9 L 19 9 L 19 14 L 20 14 L 20 6 L 13.007812 6 L 11.007812 4 L 11 4.0097656 L 11 4 L 5 4 L 4 4 z M 17.5 15 C 16.115 15 15 16.115 15 17.5 C 15 17.933427 15.118052 18.334808 15.310547 18.689453 L 16.070312 17.929688 C 16.029283 17.792593 16 17.650791 16 17.5 C 16 16.669 16.669 16 17.5 16 C 17.650791 16 17.792594 16.029293 17.929688 16.070312 L 18.689453 15.310547 C 18.334797 15.118054 17.933427 15 17.5 15 z M 19.689453 16.310547 L 18.929688 17.070312 C 18.970717 17.207407 19 17.349209 19 17.5 C 19 18.331 18.331 19 17.5 19 C 17.349209 19 17.207406 18.970707 17.070312 18.929688 L 16.310547 19.689453 C 16.665194 19.881946 17.066573 20 17.5 20 C 18.885 20 20 18.885 20 17.5 C 20 17.066573 19.881948 16.665192 19.689453 16.310547 z "
     class="ColorScheme-Text"
     />
</svg>
